projects/icons/src/tuiIconTeX.svg

<svg xmlns="http://www.w3.org/2000/svg" id="tuiIconTeX" viewBox="0 0 24 24" fill="none">
<path d="M4 16V8H1H7" stroke="currentColor" stroke-width="2" stroke-linecap="round" stroke-linejoin="round"/>
<path d="M9 13H12.6667C12.8508 13 13 12.8508 13 12.6667V12C13 10.8954 12.1046 10 11 10V10C9.89543 10 9 10.8954 9 12V13.7835C9 15.0076 9.99237 16 11.2165 16V16C11.7904 16 12.342 15.7774 12.7551 15.379L13 15.1429" stroke="currentColor" stroke-width="2" stroke-linecap="round"/>
<path d="M16 8L18.5 12M21 16L18.5 12M18.5 12L16 16M18.5 12L21 8" stroke="currentColor" stroke-width="2" stroke-linecap="round" stroke-linejoin="round"/>
</svg>

<svg xmlns="http://www.w3.org/2000/svg" id="tuiIconTeX" fill="none" viewBox="0 0 24 24"><path stroke="currentColor" stroke-linecap="round" stroke-linejoin="round" stroke-width="2" d="M4 16V8H1h6"/><path stroke="currentColor" stroke-linecap="round" stroke-width="2" d="M9 13h3.667c.184 0 .333-.15.333-.333V12a2 2 0 00-2-2v0a2 2 0 00-2 2v1.784C9 15.008 9.992 16 11.216 16v0c.574 0 1.126-.223 1.54-.621l.244-.236"/><path stroke="currentColor" stroke-linecap="round" stroke-linejoin="round" stroke-width="2" d="M16 8l2.5 4m2.5 4l-2.5-4m0 0L16 16m2.5-4L21 8"/></svg>
